!!!COM: Music21
!!!OTL: Jota Valseada
!!!OMV: pezas_jotas_jota-valseada_jota-valseada-partitura.musicxml
**kern
*part1
*staff1
*I"Bagpipes
*I'Bag
*clefG^2
*k[]
*M3/4
=1
!LO:TX:a:t=Prestissimo
*MM220
!LO:TX:a:t=[quarter]=220
4r
4ee
4ff
=||
4gg
4aa
4bb
=
4ccc
4bb
4aa
=
8ggL
8aaJ
8ggL
8ffJ
[4ee
=
4ee]
4gg
4ee
=
8ffL
8ggJ
8ffL
8eeJ
[4dd
=
4dd]
4aa
4ff
=
8ggL
8aaJ
8ggL
8ffJ
[4ee
=
4ee]
4ee
4ff
!!linebreak:original
=
4gg
4aa
4bb
=
4ccc
4bb
4aa
!!linebreak:original
=
8ggL
8aaJ
8ggL
8ffJ
[4ee
=
4ee]
4gg
4ee
=
8ffL
8ggJ
8ffL
8eeJ
[4dd
=
4dd]
4gg
4ff
=
[2.ee
=
4ee]
4ee
4ff
=||
4gg
4aa
4bb
=
4ccc
4bb
4aa
=
8ggL
8aaJ
8ggL
8ffJ
[4ee
=
4ee]
4gg
4ee
!!linebreak:original
=
8ffL
8ggJ
8ffL
8eeJ
[4dd
=
4dd]
4aa
4ff
=
8ggL
8aaJ
8ggL
8ffJ
[4ee
=
4ee]
4ee
4ff
=
4gg
4aa
4bb
=
4ccc
4bb
4aa
!!linebreak:original
=
8ggL
8aaJ
8ggL
8ffJ
[4ee
=
4ee]
4gg
4ee
=
8ffL
8ggJ
8ffL
8eeJ
[4dd
=
4dd]
4gg
4ff
=
4ee
4gg
4ee
=
4ccc
4r
4ee
=||
!LO:TX:a:t=Fine
2gg
4ee
=
2aa
4ee
=
[2.gg
=
2gg]
4ee
=
2gg
4ee
!!linebreak:original
=
2aa
12ggL
12aa
12ggJ
=
[2.ff
=
2ff]
4ff
=
2aa
4ff
=
2bb
4ff
=
[2.aa
=
2aa]
4ff
=
2aa
4ff
=
2bb
12aaL
12bb
12aaJ
=
[2.gg
=
2gg]
4ee
=
2gg
4ee
=
2aa
4ee
=
[2.gg
!!pagebreak:original
=
2gg]
4ee
=
2gg
4ee
!!linebreak:original
=
2ff
4gg
=
[2.aa
=
2aa]
4ff
=
2aa
4ff
=
2bb
12aaL
12bb
12aaJ
=
2gg
4ee
=
2aa
12ggL
12aa
12ggJ
=
2ff
4dd
=
2gg
12ffL
12gg
12ffJ
=
[2.ee
=
2ee]
4ee
=||
2gg
4ee
=
2aa
4ee
!!linebreak:original
=
[2.gg
=
2gg]
4ee
=
2gg
4ee
!!linebreak:original
=
2aa
12ggL
12aa
12ggJ
=
[2.ff
=
2ff]
4ff
=
2aa
4ff
=
2bb
4ff
=
[2.aa
=
2aa]
4ff
=
2aa
4ff
=
2bb
12aaL
12bb
12aaJ
=
[2.gg
=
2gg]
4ee
=
2gg
4ee
=
2aa
4ee
=
[2.gg
!!linebreak:original
=
2gg]
4ee
=
2gg
4ee
!!linebreak:original
=
2ff
4gg
=
[2.aa
=
2aa]
4ff
=
2aa
4ff
=
2bb
12aaL
12bb
12aaJ
=
2gg
4ee
=
2aa
12ggL
12aa
12ggJ
=
2ff
4dd
=
2gg
12ffL
12gg
12ffJ
=
4ee
4aa
4gg
=
4cc
4ee
4ff
==
*-
!!!system-decoration: s1,s2
